src/resources/icons-social-media/src/social-media/blog-negative.svg

<?xml version="1.0" encoding="UTF-8" ?>
<svg
  width="48px"
  height="48px"
  viewBox="0 0 48 48"
  version="1.1"
  xmlns="http://www.w3.org/2000/svg"
  xmlns:xlink="http://www.w3.org/1999/xlink"
>
    <title>EC/Icons/Social/2XL_48x48px/Icon-Blog/Negative</title>
    <defs>
        <path
      d="M40,2 C45.0014924,2 46,3.01202202 46,7 L46,7 L46,33 C46,36.9423945 44.1138181,38 40,38 L40,38 L30,38 L13,46 L13,38 L7,38 C3.1103758,37.9487259 2,36.9631662 2,33 L2,33 L2,7 C2,3.04223536 3.13209164,2 7,2 L7,2 Z M31,25 L9,25 L9,28 L31,28 L31,25 Z M39,18 L9,18 L9,21 L39,21 L39,18 Z M39,11 L9,11 L9,14 L39,14 L39,11 Z"
      id="path-1"
    />
    </defs>
    <g
    id="EC/Icons/Social/2XL_48x48px/Icon-Blog/Negative"
    stroke="none"
    stroke-width="1"
    fill="none"
    fill-rule="evenodd"
  >
        <mask id="mask-2" fill="white">
            <use xlink:href="#path-1" />
        </mask>
        <use id="Combined-Shape" fill="#FFFFFF" xlink:href="#path-1" />
    </g>
</svg>

<?xml version="1.0" encoding="UTF-8" ?>
<svg xmlns="http://www.w3.org/2000/svg" viewBox="0 0 48 48"><defs><style
    >.cls-1{fill:none;}.cls-2{fill:#fff;fill-rule:evenodd;}</style></defs><g
    id="transparant_bg"
  ><rect class="cls-1" y="0" width="48" height="48" /></g><g id="Layer_1"><g
      id="Component_type_Icons_Icon_type_Social_Size_2XL_48x48px_Subject_Icon-Blog_Style_Negative_Webtools_False"
    ><path
        id="Combined_Shape"
        class="cls-2"
        d="M2,7C2,3.04,3.13,2,7,2H40c5,0,6,1.01,6,5v26c0,3.94-1.89,5-6,5h-10l-17,8v-8H7c-3.89-.05-5-1.04-5-5V7Zm7,4h30v3H9v-3Zm30,7H9v3h30v-3Zm-8,7H9v3H31v-3Z"
      /></g></g></svg>
